;FLAVOR:Marlin
;TIME:2984
;Filament used: 2.44564m
;Layer height: 0.2
;MINX:74.397
;MINY:23.907
;MINZ:0.2
;MAXX:160.586
;MAXY:211.093
;MAXZ:3
;TARGET_MACHINE.NAME:Creality Ender-3
;Generated with Cura_SteamEngine 5.6.0
M140 S50
M105
M190 S50
M104 S200
M105
M109 S200
M82 ;absolute extrusion mode
; Ender 3 Custom Start G-code
G92 E0 ; Reset Extruder
G28 ; Home all axes
G1 Z2.0 F3000 ; Move Z Axis up little to prevent scratching of Heat Bed
G1 X0.1 Y20 Z0.3 F5000.0 ; Move to start position
G1 X0.1 Y200.0 Z0.3 F1500.0 E15 ; Draw the first line
G1 X0.4 Y200.0 Z0.3 F5000.0 ; Move to side a little
G1 X0.4 Y20 Z0.3 F1500.0 E30 ; Draw the second line
G92 E0 ; Reset Extruder
G1 Z2.0 F3000 ; Move Z Axis up little to prevent scratching of Heat Bed
G1 X5 Y20 Z0.3 F5000.0 ; Move over to prevent blob squish
G92 E0
G92 E0
G1 F2760 E-7
;LAYER_COUNT:15
;LAYER:0
M107
G0 F6000 X103.104 Y31.279 Z0.2
;TYPE:SKIRT
G1 F2760 E0
G1 F1200 X103.429 Y30.399 E0.03027
G1 X103.815 Y29.582 E0.05942
G1 X104.308 Y28.742 E0.09084
G1 X104.854 Y27.978 E0.12114
G1 X105.464 Y27.266 E0.15138
G1 X106.136 Y26.611 E0.18166
G1 X106.863 Y26.017 E0.21195
G1 X107.64 Y25.49 E0.24224
G1 X108.46 Y25.034 E0.27251
G1 X109.318 Y24.652 E0.30281
G1 X110.205 Y24.348 E0.33306
G1 X111.116 Y24.123 E0.36333
G1 X112.042 Y23.979 E0.39357
G1 X112.901 Y23.92 E0.42135
G1 X113.508 Y23.907 E0.44093
G1 X114.985 Y23.907 E0.48859
G1 X115.847 Y23.919 E0.5164
G1 X116.784 Y23.975 E0.54668
G1 X117.712 Y24.114 E0.57696
G1 X118.625 Y24.335 E0.60726
G1 X119.481 Y24.623 E0.6364
G1 X120.373 Y25.013 E0.66781
G1 X121.194 Y25.466 E0.69806
G1 X121.945 Y25.968 E0.7272
G1 X122.704 Y26.58 E0.75866
G1 X123.378 Y27.233 E0.78894
G1 X123.992 Y27.942 E0.81919
G1 X124.542 Y28.703 E0.84949
G1 X125.004 Y29.479 E0.87862
G1 X125.427 Y30.356 E0.91004
G1 X125.756 Y31.234 E0.94029
G1 X126.007 Y32.139 E0.97059
G1 X126.172 Y33.027 E0.99973
G1 X126.239 Y33.606 E1.01853
G1 X126.391 Y35.506 E1.08002
G1 X126.65 Y38.049 E1.16249
G1 X126.973 Y40.535 E1.24337
G1 X127.373 Y43.059 E1.32582
G1 X127.838 Y45.527 E1.40684
G1 X128.379 Y48.018 E1.48908
G1 X128.97 Y50.411 E1.5686
G1 X129.662 Y52.901 E1.65198
G1 X130.402 Y55.303 E1.73307
G1 X131.218 Y57.707 E1.81497
G1 X132.094 Y60.065 E1.89613
G1 X133.04 Y62.41 E1.97771
G1 X134.064 Y64.747 E2.06003
G1 X135.134 Y67.018 E2.14102
G1 X136.273 Y69.267 E2.22235
G1 X137.488 Y71.508 E2.30459
G1 X138.744 Y73.675 E2.3854
G1 X140.096 Y75.864 E2.46841
G1 X141.454 Y77.929 E2.54814
G1 X142.917 Y80.021 E2.6305
G1 X144.421 Y82.048 E2.71193
G1 X145.977 Y84.025 E2.7931
G1 X147.614 Y85.988 E2.87557
G1 X149.278 Y87.873 E2.95669
G1 X151.014 Y89.733 E3.03877
G1 X152.798 Y91.535 E3.12058
G1 X154.164 Y92.852 E3.18179
G1 X154.821 Y93.547 E3.21265
G1 X155.403 Y94.283 E3.24292
G1 X155.917 Y95.068 E3.27319
G1 X156.361 Y95.896 E3.30351
G1 X156.728 Y96.759 E3.33376
G1 X157.017 Y97.644 E3.3638
G1 X157.145 Y98.156 E3.38082
G1 X157.427 Y99.417 E3.42251
G1 X160.243 Y113.348 E3.88105
G1 X160.408 Y114.23 E3.91
G1 X160.538 Y115.159 E3.94026
G1 X160.586 Y116.097 E3.97056
G1 X160.55 Y117.035 E4.00085
G1 X160.431 Y117.966 E4.03113
G1 X160.229 Y118.885 E4.06148
G1 X159.891 Y119.934 E4.09704
G1 X159.029 Y122.196 E4.17514
G1 X158.192 Y124.581 E4.25668
G1 X157.409 Y127.03 E4.33963
G1 X156.711 Y129.448 E4.42083
G1 X156.084 Y131.876 E4.50173
G1 X155.515 Y134.372 E4.58433
G1 X155.028 Y136.824 E4.66498
G1 X154.601 Y139.345 E4.74747
G1 X154.254 Y141.82 E4.8281
G1 X153.973 Y144.335 E4.90974
G1 X153.761 Y146.865 E4.99165
G1 X153.624 Y149.371 E5.07262
G1 X153.557 Y151.933 E5.15531
G1 X153.562 Y154.45 E5.23651
G1 X153.637 Y156.947 E5.31711
G1 X153.785 Y159.487 E5.39919
G1 X154.004 Y162.009 E5.48087
G1 X154.291 Y164.491 E5.56147
G1 X154.782 Y167.804 E5.66953
G1 X155.086 Y169.637 E5.72947
G1 X155.231 Y170.595 E5.76073
G1 X155.308 Y171.247 E5.78191
G1 X155.515 Y173.669 E5.86034
G1 X155.563 Y174.353 E5.88246
G1 X155.587 Y174.93 E5.90109
G1 X155.597 Y175.758 E5.9278
G1 X155.591 Y177.079 E5.97042
G1 X155.578 Y177.532 E5.98504
G1 X155.498 Y179.132 E6.03673
G1 X155.389 Y180.561 E6.08297
G1 X155.247 Y181.647 E6.1183
G1 X155.044 Y182.739 E6.15413
G1 X154.808 Y183.933 E6.1934
G1 X154.595 Y184.806 E6.22239
G1 X154.266 Y185.917 E6.25977
G1 X153.641 Y187.829 E6.32467
G1 X153.285 Y188.83 E6.35895
G1 X152.972 Y189.612 E6.38612
G1 X152.699 Y190.238 E6.40816
G1 X152.423 Y190.819 E6.42891
G1 X152.043 Y191.541 E6.45523
G1 X151.65 Y192.221 E6.48057
G1 X150.439 Y194.197 E6.55534
G1 X149.894 Y195.001 E6.58668
G1 X148.653 Y196.658 E6.65347
G1 X148.204 Y197.215 E6.67655
G1 X147.813 Y197.668 E6.69585
G1 X147.118 Y198.427 E6.72906
G1 X146.488 Y199.069 E6.75807
G1 X145.697 Y199.837 E6.79364
G1 X144.486 Y200.973 E6.84721
G1 X143.692 Y201.646 E6.88079
G1 X142.553 Y202.513 E6.92697
G1 X141.842 Y203.034 E6.95541
G1 X141.425 Y203.324 E6.9718
G1 X140.739 Y203.775 E6.99829
G1 X139.608 Y204.486 E7.04139
G1 X138.472 Y205.145 E7.08376
G1 X136.743 Y206.054 E7.14678
G1 X135.796 Y206.52 E7.18083
G1 X135.383 Y206.713 E7.19554
G1 X134.185 Y207.234 E7.23768
G1 X132.828 Y207.774 E7.2848
G1 X132.498 Y207.896 E7.29615
G1 X131.868 Y208.107 E7.31759
G1 X129.023 Y208.96 E7.41341
G1 X128.019 Y209.23 E7.44695
G1 X126.53 Y209.575 E7.49626
G1 X123.859 Y210.121 E7.58422
G1 X123.325 Y210.216 E7.60172
G1 X122.582 Y210.326 E7.62595
G1 X119.686 Y210.706 E7.72018
G1 X119.209 Y210.758 E7.73566
G1 X117.853 Y210.872 E7.77956
G1 X115.27 Y211.038 E7.86307
G1 X114.454 Y211.072 E7.88942
G1 X113.203 Y211.093 E7.92978
G1 X110.884 Y211.092 E8.0046
G1 X109.868 Y211.073 E8.03739
G1 X107.294 Y210.956 E8.12051
G1 X106.398 Y210.89 E8.1495
G1 X104.209 Y210.696 E8.2204
G1 X102.529 Y210.527 E8.27487
G1 X99.57 Y210.207 E8.37089
G1 X98.625 Y210.114 E8.40153
G1 X98.076 Y210.045 E8.41938
G1 X95.186 Y209.607 E8.51368
G1 X94.255 Y209.477 E8.54401
G1 X93.758 Y209.395 E8.56026
G1 X91.309 Y208.93 E8.64068
G1 X89.614 Y208.561 E8.69665
G1 X87.423 Y208.021 E8.76945
G1 X86.718 Y207.833 E8.79299
G1 X85.851 Y207.572 E8.8222
G1 X85.247 Y207.365 E8.8428
G1 X84.673 Y207.149 E8.86259
G1 X83.843 Y206.794 E8.89171
G1 X82.984 Y206.333 E8.92316
G1 X82.202 Y205.817 E8.95339
G1 X81.467 Y205.232 E8.9837
G1 X80.786 Y204.586 E9.01398
G1 X80.166 Y203.881 E9.04427
G1 X79.61 Y203.125 E9.07455
G1 X79.124 Y202.323 E9.1048
G1 X78.711 Y201.481 E9.13506
G1 X78.373 Y200.605 E9.16535
G1 X78.114 Y199.702 E9.19566
G1 X77.934 Y198.765 E9.22644
G1 X77.827 Y198.022 E9.25066
G1 X75.992 Y183.566 E9.72079
G1 X75.889 Y182.65 E9.75052
G1 X75.828 Y181.714 E9.78079
G1 X75.849 Y180.775 E9.81109
G1 X75.949 Y179.877 E9.84024
G1 X76.142 Y178.921 E9.8717
G1 X76.435 Y177.948 E9.90449
G1 X76.731 Y177.116 E9.93298
G1 X77.159 Y175.957 E9.97284
G1 X77.974 Y173.546 E10.05495
G1 X78.71 Y171.143 E10.13603
G1 X79.387 Y168.696 E10.21794
G1 X79.989 Y166.247 E10.2993
G1 X80.529 Y163.738 E10.3821
G1 X80.984 Y161.3 E10.46211
G1 X81.376 Y158.812 E10.54337
G1 X81.702 Y156.281 E10.6257
G1 X81.955 Y153.744 E10.70796
G1 X82.13 Y151.279 E10.78769
G1 X82.241 Y148.703 E10.87087
G1 X82.279 Y146.181 E10.95225
G1 X82.245 Y143.659 E11.03362
G1 X82.14 Y141.147 E11.11473
G1 X81.96 Y138.605 E11.19695
G1 X81.714 Y136.102 E11.27809
G1 X81.394 Y133.591 E11.35976
G1 X81.006 Y131.102 E11.44103
G1 X80.538 Y128.574 E11.52397
G1 X80.018 Y126.161 E11.60361
G1 X79.418 Y123.703 E11.68524
G1 X78.74 Y121.236 E11.76778
G1 X78 Y118.814 E11.84949
G1 X77.191 Y116.408 E11.93138
G1 X76.331 Y114.074 E12.01163
G1 X75.178 Y111.207 E12.11132
G1 X74.868 Y110.322 E12.14158
G1 X74.638 Y109.412 E12.17186
G1 X74.489 Y108.484 E12.20218
G1 X74.42 Y107.483 E12.23455
G1 X74.397 Y106.244 E12.27453
G1 X74.398 Y101.049 E12.44214
G1 X74.409 Y100.33 E12.46534
G1 X74.465 Y99.393 E12.49562
G1 X74.604 Y98.465 E12.52589
G1 X74.825 Y97.552 E12.5562
G1 X75.125 Y96.664 E12.58644
G1 X75.503 Y95.804 E12.61675
G1 X75.956 Y94.981 E12.64705
G1 X76.459 Y94.231 E12.67619
G1 X77.248 Y93.276 E12.71615
G1 X78.715 Y91.726 E12.78501
G1 X80.43 Y89.829 E12.86751
G1 X82.081 Y87.894 E12.94957
G1 X83.649 Y85.949 E13.03018
G1 X85.184 Y83.93 E13.112
G1 X86.66 Y81.871 E13.19374
G1 X88.065 Y79.788 E13.2748
G1 X89.443 Y77.616 E13.35778
G1 X90.708 Y75.489 E13.43762
G1 X91.957 Y73.251 E13.52031
G1 X93.128 Y71.003 E13.60209
G1 X94.222 Y68.751 E13.68286
G1 X95.26 Y66.448 E13.76436
G1 X96.24 Y64.101 E13.84641
G1 X97.153 Y61.729 E13.92841
G1 X97.99 Y59.352 E14.00972
G1 X98.761 Y56.948 E14.09117
G1 X99.465 Y54.523 E14.17263
G1 X100.103 Y52.064 E14.25459
G1 X100.666 Y49.618 E14.33557
G1 X101.165 Y47.123 E14.41766
G1 X101.595 Y44.605 E14.50007
G1 X101.944 Y42.142 E14.58033
G1 X102.226 Y39.649 E14.66127
G1 X102.442 Y37.105 E14.74364
G1 X102.606 Y34.061 E14.84199
G1 X102.691 Y33.108 E14.87286
G1 X102.857 Y32.185 E14.90311
G1 X103.104 Y31.279 E14.93341
G0 F6000 X103.479 Y31.417
G1 F1200 X103.791 Y30.57 E14.96253
G1 X104.177 Y29.753 E14.99168
G1 X104.634 Y28.974 E15.02082
G1 X105.158 Y28.238 E15.04997
G1 X105.744 Y27.552 E15.07908
G1 X106.39 Y26.92 E15.10823
G1 X107.088 Y26.348 E15.13735
G1 X107.835 Y25.839 E15.16651
G1 X108.623 Y25.399 E15.19563
G1 X109.448 Y25.03 E15.22479
G1 X110.301 Y24.736 E15.25389
G1 X111.178 Y24.518 E15.28305
G1 X112.07 Y24.378 E15.31218
G1 X112.91 Y24.32 E15.33934
G1 X113.517 Y24.307 E15.35893
G1 X114.98 Y24.307 E15.40613
G1 X115.824 Y24.318 E15.43336
G1 X116.726 Y24.371 E15.46251
G1 X117.619 Y24.503 E15.49164
G1 X118.497 Y24.714 E15.52077
G1 X119.353 Y25.002 E15.54991
G1 X120.18 Y25.364 E15.57903
G1 X120.972 Y25.799 E15.60819
G1 X121.723 Y26.301 E15.63733
G1 X122.426 Y26.868 E15.66647
G1 X123.076 Y27.495 E15.6956
G1 X123.668 Y28.177 E15.72474
G1 X124.198 Y28.908 E15.75387
G1 X124.66 Y29.684 E15.78301
G1 X125.053 Y30.497 E15.81214
G1 X125.371 Y31.342 E15.84127
G1 X125.614 Y32.212 E15.87041
G1 X125.779 Y33.1 E15.89955
G1 X125.84 Y33.64 E15.91708
G1 X125.939 Y34.798 E15.95458
G1 X125.993 Y35.546 E15.97877
G1 X126.253 Y38.101 E16.06163
G1 X126.576 Y40.587 E16.14251
G1 X126.98 Y43.133 E16.22568
G1 X127.447 Y45.612 E16.30706
G1 X127.988 Y48.103 E16.3893
G1 X128.585 Y50.518 E16.46956
G1 X129.28 Y53.019 E16.5533
G1 X130.023 Y55.432 E16.63476
G1 X130.839 Y57.836 E16.71666
G1 X131.723 Y60.215 E16.79854
G1 X132.67 Y62.56 E16.88014
G1 X133.702 Y64.918 E16.96318
G1 X134.777 Y67.199 E17.04453
G1 X135.921 Y69.458 E17.12622
G1 X137.136 Y71.699 E17.20847
G1 X138.398 Y73.876 E17.28965
G1 X139.762 Y76.084 E17.37338
G1 X141.126 Y78.158 E17.45347
G1 X142.589 Y80.25 E17.53583
G1 X144.107 Y82.295 E17.61799
G1 X145.67 Y84.281 E17.69953
G1 X147.314 Y86.253 E17.78236
G1 X148.978 Y88.138 E17.86348
G1 X150.722 Y90.006 E17.94593
G1 X152.52 Y91.823 E18.0284
G1 X153.886 Y93.14 E18.08961
G1 X154.508 Y93.796 E18.11878
G1 X155.069 Y94.503 E18.1479
G1 X155.565 Y95.258 E18.17704
G1 X155.993 Y96.053 E18.20617
G1 X156.348 Y96.883 E18.2353
G1 X156.629 Y97.742 E18.26445
G1 X156.755 Y98.243 E18.28112
G1 X157.035 Y99.496 E18.32254
G1 X159.85 Y113.422 E18.78091
G1 X160.012 Y114.286 E18.80928
G1 X160.139 Y115.18 E18.83841
G1 X160.186 Y116.082 E18.86755
G1 X160.153 Y116.985 E18.8967
G1 X160.04 Y117.881 E18.92584
G1 X159.848 Y118.763 E18.95496
G1 X159.517 Y119.792 E18.98983
G1 X158.655 Y122.054 E19.06793
G1 X157.811 Y124.459 E19.15016
G1 X157.028 Y126.908 E19.23311
G1 X156.327 Y129.337 E19.31467
G1 X155.697 Y131.776 E19.39594
G1 X155.125 Y134.283 E19.4789
G1 X154.636 Y136.746 E19.55992
G1 X154.207 Y139.278 E19.64277
G1 X153.856 Y141.776 E19.72415
G1 X153.575 Y144.291 E19.8058
G1 X153.363 Y146.832 E19.88806
G1 X153.224 Y149.361 E19.96977
G1 X153.157 Y151.923 E20.05246
G1 X153.162 Y154.462 E20.13437
G1 X153.237 Y156.959 E20.21497
G1 X153.387 Y159.522 E20.2978
G1 X153.607 Y162.055 E20.37983
G1 X153.895 Y164.55 E20.46085
G1 X154.387 Y167.87 E20.56913
G1 X154.691 Y169.697 E20.62889
G1 X154.834 Y170.642 E20.65972
G1 X154.909 Y171.281 E20.68048
G1 X155.116 Y173.697 E20.75871
G1 X155.163 Y174.37 E20.78048
G1 X155.187 Y174.935 E20.79872
G1 X155.197 Y175.756 E20.82521
G1 X155.191 Y177.068 E20.86754
G1 X155.179 Y177.512 E20.88187
G1 X155.099 Y179.102 E20.93323
G1 X154.992 Y180.509 E20.97876
G1 X154.85 Y181.595 E21.01409
G1 X154.652 Y182.661 E21.04907
G1 X154.419 Y183.838 E21.08778
G1 X154.211 Y184.693 E21.11617
G1 X153.886 Y185.793 E21.15317
G1 X153.264 Y187.695 E21.21774
G1 X152.914 Y188.681 E21.25149
G1 X152.605 Y189.452 E21.27829
G1 X152.337 Y190.067 E21.29993
G1 X152.069 Y190.633 E21.32014
G1 X151.697 Y191.341 E21.34594
G1 X151.309 Y192.012 E21.37095
G1 X150.108 Y193.973 E21.44513
G1 X149.574 Y194.761 E21.47584
G1 X148.341 Y196.407 E21.5422
G1 X147.901 Y196.954 E21.56484
G1 X147.518 Y197.398 E21.58376
G1 X146.832 Y198.147 E21.61653
G1 X146.21 Y198.782 E21.64521
G1 X145.423 Y199.545 E21.68057
G1 X144.227 Y200.668 E21.7335
G1 X143.433 Y201.341 E21.76708
G1 X142.317 Y202.19 E21.81232
G1 X141.613 Y202.706 E21.84048
G1 X141.205 Y202.99 E21.85652
G1 X140.526 Y203.436 E21.88273
G1 X139.407 Y204.14 E21.92538
G1 X138.286 Y204.791 E21.9672
G1 X136.566 Y205.695 E22.02989
G1 X135.627 Y206.158 E22.06367
G1 X135.224 Y206.346 E22.07801
G1 X134.037 Y206.862 E22.11977
G1 X132.689 Y207.399 E22.16658
G1 X132.371 Y207.517 E22.17753
G1 X131.753 Y207.724 E22.19855
G1 X128.919 Y208.574 E22.29401
G1 X127.929 Y208.84 E22.32708
G1 X126.45 Y209.183 E22.37606
G1 X123.789 Y209.727 E22.46369
G1 X123.266 Y209.82 E22.48083
G1 X122.53 Y209.929 E22.50483
G1 X119.643 Y210.308 E22.59877
G1 X119.175 Y210.359 E22.61396
G1 X117.827 Y210.473 E22.65761
G1 X115.253 Y210.638 E22.74082
G1 X114.447 Y210.672 E22.76685
G1 X113.203 Y210.693 E22.80699
G1 X110.892 Y210.692 E22.88154
G1 X109.886 Y210.673 E22.91401
G1 X107.323 Y210.557 E22.99678
G1 X106.433 Y210.492 E23.02557
G1 X104.249 Y210.298 E23.09631
G1 X102.572 Y210.129 E23.15068
G1 X99.613 Y209.809 E23.24671
G1 X98.674 Y209.717 E23.27715
G1 X98.136 Y209.65 E23.29464
G1 X95.241 Y209.211 E23.3891
G1 X94.32 Y209.082 E23.41911
G1 X93.833 Y209.002 E23.43503
G1 X91.394 Y208.539 E23.51512
G1 X89.71 Y208.173 E23.57072
G1 X87.526 Y207.635 E23.64329
G1 X86.833 Y207.45 E23.66643
G1 X85.981 Y207.194 E23.69513
G1 X85.388 Y206.991 E23.71535
G1 X84.83 Y206.781 E23.73459
G1 X84 Y206.426 E23.76371
G1 X83.204 Y205.999 E23.79285
G1 X82.45 Y205.503 E23.82197
G1 X81.742 Y204.942 E23.85111
G1 X81.086 Y204.321 E23.88026
G1 X80.488 Y203.644 E23.9094
G1 X79.952 Y202.917 E23.93854
G1 X79.483 Y202.146 E23.96765
G1 X79.084 Y201.336 E23.99679
G1 X78.757 Y200.494 E24.02593
G1 X78.507 Y199.626 E24.05507
G1 X78.33 Y198.708 E24.08523
G1 X78.224 Y197.972 E24.10922
G1 X76.389 Y183.521 E24.57919
G1 X76.288 Y182.623 E24.60834
G1 X76.228 Y181.722 E24.63748
G1 X76.247 Y180.819 E24.66661
G1 X76.347 Y179.921 E24.69577
G1 X76.525 Y179.036 E24.72489
G1 X76.812 Y178.082 E24.75703
G1 X77.106 Y177.255 E24.78535
G1 X77.534 Y176.096 E24.82521
G1 X78.353 Y173.674 E24.90769
G1 X79.096 Y171.25 E24.98949
G1 X79.772 Y168.803 E25.07139
G1 X80.377 Y166.343 E25.15312
G1 X80.92 Y163.822 E25.23632
G1 X81.377 Y161.373 E25.31669
G1 X81.773 Y158.863 E25.39867
G1 X82.099 Y156.332 E25.481
G1 X82.353 Y153.784 E25.56362
G1 X82.53 Y151.296 E25.64409
G1 X82.641 Y148.72 E25.72727
G1 X82.679 Y146.187 E25.809
G1 X82.645 Y143.654 E25.89073
G1 X82.54 Y141.13 E25.97223
G1 X82.359 Y138.577 E26.0548
G1 X82.111 Y136.051 E26.13669
G1 X81.791 Y133.54 E26.21836
G1 X81.401 Y131.04 E26.29999
G1 X80.931 Y128.501 E26.38329
G1 X80.407 Y126.066 E26.46365
G1 X79.807 Y123.608 E26.54528
G1 X79.126 Y121.13 E26.62819
G1 X78.383 Y118.697 E26.71026
G1 X77.57 Y116.28 E26.79253
G1 X76.706 Y113.936 E26.87313
G1 X75.555 Y111.075 E26.97262
G1 X75.256 Y110.223 E27.00175
G1 X75.033 Y109.348 E27.03089
G1 X74.888 Y108.456 E27.06004
G1 X74.82 Y107.476 E27.09173
G1 X74.797 Y106.244 E27.13149
G1 X74.798 Y101.055 E27.2989
G1 X74.808 Y100.353 E27.32155
G1 X74.861 Y99.451 E27.3507
G1 X74.993 Y98.558 E27.37982
G1 X75.204 Y97.68 E27.40895
G1 X75.492 Y96.824 E27.43809
G1 X75.854 Y95.996 E27.46725
G1 X76.288 Y95.204 E27.49638
G1 X76.791 Y94.454 E27.52552
G1 X77.541 Y93.549 E27.56344
G1 X78.145 Y92.901 E27.59202
G1 X79.012 Y91.994 E27.6325
G1 X80.727 Y90.097 E27.715
G1 X82.385 Y88.154 E27.79741
G1 X83.96 Y86.2 E27.87838
G1 X85.509 Y84.163 E27.96094
