;FLAVOR:Marlin
;TIME:7358
;Filament used: 3.05819m
;Layer height: 0.2
;MINX:61.202
;MINY:58.198
;MINZ:0.2
;MAXX:173.798
;MAXY:176.793
;MAXZ:3
;TARGET_MACHINE.NAME:Creality Ender-3
;Generated with Cura_SteamEngine 5.6.0
M140 S50
M105
M190 S50
M104 S197
M105
M109 S197
M82 ;absolute extrusion mode
; Ender 3 Custom Start G-code
G92 E0 ; Reset Extruder
G28 ; Home all axes
G1 Z2.0 F3000 ; Move Z Axis up little to prevent scratching of Heat Bed
G1 X0.1 Y20 Z0.3 F5000.0 ; Move to start position
G1 X0.1 Y200.0 Z0.3 F1500.0 E15 ; Draw the first line
G1 X0.4 Y200.0 Z0.3 F5000.0 ; Move to side a little
G1 X0.4 Y20 Z0.3 F1500.0 E30 ; Draw the second line
G92 E0 ; Reset Extruder
G1 Z2.0 F3000 ; Move Z Axis up little to prevent scratching of Heat Bed
G1 X5 Y20 Z0.3 F5000.0 ; Move over to prevent blob squish
G92 E0
G92 E0
G1 F2700 E-5
;LAYER_COUNT:15
;LAYER:0
M107
;MESH:colibries_colgante10cm.stl
G0 F6000 X117.47 Y166.571 Z0.2
;TYPE:WALL-INNER
G1 F2700 E0
G1 F1200 X110.467 Y166.1 E0.18115
G1 X103.659 Y164.711 E0.36049
G1 X97.203 Y162.465 E0.53691
G1 X91.242 Y159.476 E0.70902
G1 X85.683 Y155.722 E0.88215
G1 X80.658 Y151.295 E1.055
G1 X76.274 Y146.313 E1.22628
G1 X72.534 Y140.779 E1.39867
G1 X69.532 Y134.793 E1.57151
G1 X67.286 Y128.337 E1.74793
G1 X65.896 Y121.529 E1.92727
G1 X65.425 Y114.463 E2.11005
G1 X65.896 Y107.463 E2.29113
G1 X67.286 Y100.655 E2.47046
G1 X69.532 Y94.199 E2.64689
G1 X72.534 Y88.214 E2.8197
G1 X76.274 Y82.679 E2.99212
G1 X80.701 Y77.654 E3.16496
G1 X85.683 Y73.27 E3.33624
G1 X91.217 Y69.53 E3.50863
G1 X97.203 Y66.528 E3.68147
G1 X103.659 Y64.282 E3.8579
G1 X110.467 Y62.892 E4.03723
G1 X117.5 Y62.42 E4.21916
G1 X124.533 Y62.892 E4.40109
G1 X131.341 Y64.282 E4.58043
G1 X137.797 Y66.528 E4.75686
G1 X143.758 Y69.516 E4.92895
G1 X149.317 Y73.27 E5.10208
G1 X154.342 Y77.697 E5.27493
G1 X158.726 Y82.679 E5.44621
G1 X162.466 Y88.214 E5.61862
G1 X165.469 Y94.199 E5.79145
G1 X167.714 Y100.655 E5.96787
G1 X169.1 Y107.429 E6.14632
G1 X169.576 Y114.496 E6.32914
G1 X169.104 Y121.529 E6.51106
G1 X167.714 Y128.337 E6.6904
G1 X165.469 Y134.793 E6.86682
G1 X162.48 Y140.754 E7.03893
G1 X158.726 Y146.313 E7.21206
G1 X154.299 Y151.338 E7.3849
G1 X149.317 Y155.722 E7.55618
G1 X143.783 Y159.462 E7.72858
G1 X137.797 Y162.465 E7.90143
G1 X131.341 Y164.711 E8.07785
G1 X124.533 Y166.1 E8.25718
G1 X117.47 Y166.571 E8.43988
G1 F2700 E3.43988
G0 F6000 X118.01 Y170.367
G0 X117.998 Y175.485
G1 F2700 E8.43988
G1 F1200 X117.211 Y175.353 E8.46048
G1 X116.54 Y175.005 E8.47999
G1 X115.991 Y174.456 E8.50003
G1 X115.633 Y173.767 E8.52007
G1 X115.511 Y172.994 E8.54027
G1 X115.639 Y172.228 E8.56031
G1 X115.996 Y171.523 E8.58071
G1 X116.524 Y170.995 E8.59998
G1 X117.231 Y170.628 E8.62054
G1 X118.006 Y170.508 E8.64078
G1 X118.764 Y170.628 E8.66059
G1 X119.476 Y170.995 E8.68126
G1 X120.018 Y171.541 E8.70112
G1 X120.361 Y172.228 E8.72094
G1 X120.491 Y172.996 E8.74104
G1 X120.362 Y173.764 E8.76114
G1 X120.009 Y174.456 E8.78119
G1 X119.46 Y175.005 E8.80123
G1 X118.771 Y175.363 E8.82127
G1 X117.998 Y175.485 E8.84147
G0 F6000 X118.113 Y176.33
G0 X118 Y176.51
G1 F1200 X119.084 Y176.337 E8.8698
G1 X120.063 Y175.838 E8.89816
G1 X120.842 Y175.059 E8.92659
G1 X121.341 Y174.08 E8.95495
G1 X121.513 Y172.996 E8.98328
G1 X121.341 Y171.91 E9.01166
G1 X120.836 Y170.911 E9.04055
G1 X120.815 Y170.646 E9.04741
G1 X120.964 Y170.384 E9.05519
G1 X121.153 Y170.268 E9.06092
G1 X125.101 Y170.003 E9.16304
G1 X132.394 Y168.513 E9.35516
G1 X139.309 Y166.109 E9.54411
G1 X145.765 Y162.868 E9.73056
G1 X151.726 Y158.841 E9.91623
G1 X157.108 Y154.105 E10.10126
G1 X161.845 Y148.722 E10.28633
G1 X165.872 Y142.761 E10.472
G1 X169.112 Y136.305 E10.65844
G1 X171.516 Y129.39 E10.84739
G1 X173.007 Y122.097 E11.03952
G1 X173.517 Y114.496 E11.23614
G1 X173.007 Y106.895 E11.43276
G1 X171.517 Y99.602 E11.62488
G1 X169.112 Y92.687 E11.81384
G1 X165.872 Y86.231 E12.00028
G1 X161.845 Y80.27 E12.18595
G1 X157.108 Y74.888 E12.371
G1 X151.726 Y70.151 E12.55605
G1 X145.765 Y66.124 E12.74172
G1 X139.309 Y62.884 E12.92815
G1 X132.394 Y60.48 E13.1171
G1 X125.101 Y58.989 E13.30923
G1 X117.5 Y58.479 E13.50585
G1 X109.899 Y58.989 E13.70247
G1 X102.606 Y60.479 E13.89459
G1 X95.691 Y62.884 E14.08355
G1 X89.235 Y66.124 E14.26999
G1 X83.274 Y70.151 E14.45566
G1 X77.892 Y74.888 E14.64071
G1 X73.155 Y80.27 E14.82576
G1 X69.128 Y86.231 E15.01143
G1 X65.888 Y92.687 E15.19786
G1 X63.483 Y99.602 E15.38683
G1 X61.993 Y106.895 E15.57894
G1 X61.483 Y114.496 E15.77557
G1 X61.993 Y122.097 E15.97219
G1 X63.483 Y129.39 E16.16431
G1 X65.888 Y136.305 E16.35327
G1 X69.128 Y142.761 E16.5397
G1 X73.155 Y148.722 E16.72537
G1 X77.892 Y154.104 E16.91042
G1 X83.274 Y158.841 E17.09547
G1 X89.235 Y162.868 E17.28114
G1 X95.691 Y166.108 E17.46758
G1 X102.606 Y168.512 E17.65653
G1 X109.899 Y170.003 E17.84866
G1 X114.81 Y170.332 E17.97569
G1 X114.984 Y170.433 E17.98089
G1 X115.145 Y170.68 E17.9885
G1 X115.141 Y170.964 E17.99583
G1 X114.659 Y171.91 E18.02323
G1 X114.486 Y172.996 E18.05161
G1 X114.659 Y174.08 E18.07994
G1 X115.158 Y175.059 E18.10831
G1 X115.937 Y175.838 E18.13674
G1 X116.916 Y176.337 E18.1651
G1 X118 Y176.51 E18.19343
G0 F6000 X118 Y176.793
;TYPE:WALL-OUTER
G1 F1200 X119.172 Y176.607 E18.22406
G1 X120.23 Y176.068 E18.25471
G1 X121.071 Y175.225 E18.28544
G1 X121.611 Y174.168 E18.31607
G1 X121.797 Y172.996 E18.3467
G1 X121.611 Y171.823 E18.37736
G1 X121.098 Y170.812 E18.40662
G1 X121.089 Y170.701 E18.40949
G1 X121.163 Y170.582 E18.41311
G1 X121.272 Y170.541 E18.41611
G1 X125.139 Y170.281 E18.51615
G1 X132.468 Y168.783 E18.70922
G1 X139.418 Y166.367 E18.89912
G1 X145.907 Y163.111 E19.08651
G1 X151.898 Y159.063 E19.27312
G1 X157.307 Y154.304 E19.45907
G1 X162.067 Y148.894 E19.64505
G1 X166.114 Y142.903 E19.83165
G1 X169.371 Y136.414 E20.01905
G1 X171.787 Y129.464 E20.20896
G1 X173.285 Y122.135 E20.40203
G1 X173.798 Y114.496 E20.59963
G1 X173.285 Y106.857 E20.79724
G1 X171.787 Y99.528 E20.99031
G1 X169.371 Y92.578 E21.18022
G1 X166.115 Y86.089 E21.3676
G1 X162.067 Y80.098 E21.55421
G1 X157.307 Y74.689 E21.74018
G1 X151.898 Y69.929 E21.92614
G1 X145.907 Y65.882 E22.11275
G1 X139.418 Y62.625 E22.30014
G1 X132.468 Y60.209 E22.49005
G1 X125.139 Y58.711 E22.68312
G1 X117.5 Y58.198 E22.88072
G1 X109.861 Y58.711 E23.07833
G1 X102.532 Y60.209 E23.2714
G1 X95.582 Y62.625 E23.46131
G1 X89.093 Y65.881 E23.64869
G1 X83.102 Y69.929 E23.8353
G1 X77.693 Y74.689 E24.02127
G1 X72.933 Y80.098 E24.20723
G1 X68.885 Y86.089 E24.39385
G1 X65.629 Y92.578 E24.58123
G1 X63.213 Y99.528 E24.77114
G1 X61.715 Y106.857 E24.96421
G1 X61.202 Y114.496 E25.16182
G1 X61.715 Y122.135 E25.35942
G1 X63.213 Y129.464 E25.55249
G1 X65.629 Y136.414 E25.7424
G1 X68.885 Y142.903 E25.92978
G1 X72.933 Y148.894 E26.1164
G1 X77.693 Y154.303 E26.30236
G1 X83.102 Y159.063 E26.48833
G1 X89.093 Y163.111 E26.67494
G1 X95.582 Y166.367 E26.86232
G1 X102.532 Y168.783 E27.05223
G1 X109.861 Y170.281 E27.2453
G1 X114.736 Y170.609 E27.37141
G1 X114.875 Y170.753 E27.37658
G1 X114.873 Y170.863 E27.37942
G1 X114.389 Y171.823 E27.40717
G1 X114.203 Y172.996 E27.43782
G1 X114.389 Y174.168 E27.46845
G1 X114.929 Y175.225 E27.49908
G1 X115.771 Y176.067 E27.52981
G1 X116.828 Y176.607 E27.56045
G1 X118 Y176.793 E27.59108
G1 F2700 E22.59108
G0 F6000 X118 Y176.531
G0 X117.817 Y176.338
G0 X117.933 Y175.617
G0 X118 Y175.198
G1 F2700 E27.59108
G1 F1200 X117.319 Y175.091 E27.60887
G1 X116.704 Y174.778 E27.62668
G1 X116.218 Y174.292 E27.64442
G1 X115.905 Y173.677 E27.66223
G1 X115.798 Y172.996 E27.68002
G1 X115.905 Y172.315 E27.69781
G1 X116.216 Y171.704 E27.71551
G1 X116.707 Y171.212 E27.73345
G1 X117.319 Y170.899 E27.75119
G1 X117.986 Y170.794 E27.76862
G1 X118.697 Y170.907 E27.7872
G1 X119.298 Y171.213 E27.80461
G1 X119.776 Y171.692 E27.82207
G1 X120.095 Y172.314 E27.84011
G1 X120.206 Y172.996 E27.85795
G1 X120.095 Y173.678 E27.87578
G1 X119.782 Y174.292 E27.89357
G1 X119.296 Y174.778 E27.91131
G1 X118.681 Y175.091 E27.92912
G1 X118 Y175.198 E27.94691
G1 F2700 E22.94691
G0 F6000 X117.959 Y175.456
G0 X117.256 Y175.285
G0 X116.586 Y174.943
G0 X116.053 Y174.41
G0 X115.711 Y173.74
G0 X115.594 Y172.996
G0 X115.711 Y172.252
G0 X116.053 Y171.582
G0 X116.533 Y171.102
G0 X118.01 Y170.367
G0 X117.762 Y166.715
G0 X117.489 Y166.291
G1 F2700 E27.94691
G1 F1200 X110.472 Y165.819 E28.12843
G1 X103.735 Y164.441 E28.30591
G1 X97.34 Y162.22 E28.48063
G1 X91.357 Y159.22 E28.65338
G1 X85.854 Y155.5 E28.82482
G1 X80.868 Y151.11 E28.99628
G1 X76.496 Y146.142 E29.16708
G1 X72.776 Y140.639 E29.33852
G1 X69.777 Y134.656 E29.51126
G1 X67.556 Y128.261 E29.68598
G1 X66.177 Y121.524 E29.86347
G1 X65.705 Y114.482 E30.04563
G1 X66.177 Y107.468 E30.22707
G1 X67.556 Y100.731 E30.40456
G1 X69.777 Y94.336 E30.57928
G1 X72.776 Y88.354 E30.75199
G1 X76.496 Y82.85 E30.92345
G1 X80.886 Y77.864 E31.09491
G1 X85.854 Y73.492 E31.26572
G1 X91.357 Y69.772 E31.43716
G1 X97.34 Y66.773 E31.60989
G1 X103.735 Y64.552 E31.78462
G1 X110.472 Y63.173 E31.9621
G1 X117.5 Y62.7 E32.1439
G1 X124.528 Y63.173 E32.32571
G1 X131.265 Y64.552 E32.50319
G1 X137.66 Y66.773 E32.67792
G1 X143.643 Y69.772 E32.85065
G1 X149.146 Y73.492 E33.02209
G1 X154.132 Y77.882 E33.19355
G1 X158.504 Y82.85 E33.36436
G1 X162.224 Y88.354 E33.53582
G1 X165.224 Y94.336 E33.70854
G1 X167.444 Y100.731 E33.88326
G1 X168.823 Y107.468 E34.06074
G1 X169.296 Y114.496 E34.24255
G1 X168.823 Y121.524 E34.42435
G1 X167.441 Y128.273 E34.60215
G1 X165.224 Y134.656 E34.77655
G1 X162.224 Y140.639 E34.9493
G1 X158.504 Y146.142 E35.12074
G1 X154.114 Y151.128 E35.2922
G1 X149.146 Y155.5 E35.463
G1 X143.643 Y159.22 E35.63444
G1 X137.66 Y162.22 E35.80719
G1 X131.265 Y164.441 E35.98191
G1 X124.528 Y165.819 E36.15939
G1 X117.489 Y166.291 E36.34148
G1 F2700 E31.34148
G0 F6000 X117.472 Y166.549
G0 X116.96 Y176.202
G0 X118 Y176.187
;TYPE:SKIN
G1 F2700 E36.34148
G1 F1013.2 X117.016 Y176.031 E36.37193
G1 X116.131 Y175.578 E36.40232
G1 F1010.5 X115.418 Y174.865 E36.43323
G1 F1013.2 X114.965 Y173.98 E36.46362
G1 F1010.5 X114.808 Y172.996 E36.49416
G1 X114.965 Y172.009 E36.52479
G1 F1002.6 X115.435 Y171.093 E36.55659
G1 F1037.8 X115.426 Y170.607 E36.5711
G1 F1142.9 X115.338 Y170.408 E36.577
G1 F1200 X115.162 Y170.206 E36.58391
G1 X114.891 Y170.049 E36.59199
G1 X109.938 Y169.717 E36.72012
G1 X102.68 Y168.233 E36.91132
G1 X95.797 Y165.84 E37.0994
G1 X89.387 Y162.622 E37.28452
G1 X83.453 Y158.612 E37.46937
G1 X78.096 Y153.9 E37.65351
G1 X73.384 Y148.543 E37.83765
G1 X69.374 Y142.609 E38.02249
G1 X66.157 Y136.199 E38.2076
G1 X63.763 Y129.317 E38.39566
G1 X62.279 Y122.058 E38.58689
G1 X61.773 Y114.494 E38.78255
G1 X62.279 Y106.934 E38.97811
G1 X63.763 Y99.675 E39.16934
G1 X66.157 Y92.793 E39.35741
G1 X69.374 Y86.383 E39.54251
G1 X73.384 Y80.449 E39.72736
G1 X78.096 Y75.092 E39.9115
G1 X83.453 Y70.38 E40.09564
G1 X89.387 Y66.37 E40.28049
G1 X95.797 Y63.153 E40.46559
G1 X102.679 Y60.759 E40.65366
G1 X109.938 Y59.275 E40.84489
G1 X117.5 Y58.769 E41.0405
G1 X125.062 Y59.275 E41.23611
G1 X132.32 Y60.759 E41.42731
G1 X139.203 Y63.153 E41.6154
G1 X145.613 Y66.37 E41.80051
G1 X151.547 Y70.38 E41.98535
G1 X156.904 Y75.092 E42.16949
G1 X161.616 Y80.449 E42.35363
G1 X165.626 Y86.383 E42.53848
G1 X168.844 Y92.793 E42.7236
G1 X171.237 Y99.675 E42.91165
G1 X172.721 Y106.934 E43.10288
G1 X173.227 Y114.494 E43.29844
G1 X172.721 Y122.058 E43.4941
G1 X171.237 Y129.316 E43.68531
G1 X168.844 Y136.199 E43.87339
G1 X165.626 Y142.609 E44.05851
G1 X161.616 Y148.543 E44.24335
G1 X156.904 Y153.901 E44.42751
G1 X151.547 Y158.612 E44.61163
G1 X145.613 Y162.622 E44.79648
G1 X139.203 Y165.84 E44.9816
G1 X132.321 Y168.233 E45.16966
G1 X125.062 Y169.717 E45.36089
G1 X121.206 Y169.977 E45.46063
G1 X120.823 Y170.121 E45.47119
G1 X120.61 Y170.377 E45.47979
G1 F1149.7 X120.53 Y170.592 E45.48597
G1 F1060.8 X120.55 Y171.043 E45.49915
G1 F1015.9 X121.035 Y172.007 E45.53205
G1 F1013.2 X121.191 Y172.996 E45.56266
G1 X121.034 Y173.979 E45.59309
G1 F1007.9 X120.582 Y174.865 E45.62365
G1 F1010.5 X119.87 Y175.579 E45.65456
G1 F1013.2 X118.983 Y176.031 E45.68499
G1 F1010.5 X118 Y176.187 E45.71549
G0 F6000 X118 Y175.805
G1 F1010.5 X118.867 Y175.667 E45.7424
G1 F1013.2 X119.649 Y175.268 E45.76924
G1 F1010.5 X120.258 Y174.661 E45.79559
G1 F1007.9 X120.665 Y173.875 E45.82279
G1 F1013.2 X120.81 Y172.996 E45.85002
G1 X120.671 Y172.124 E45.87702
G1 F997.4 X120.259 Y171.325 E45.90493
G1 F1052.1 X120.084 Y171.184 E45.91155
G1 F1163.6 X119.621 Y170.739 E45.92864
G1 F1200 X118.852 Y170.35 E45.95088
G1 X117.998 Y170.22 E45.97318
G1 X117.141 Y170.351 E45.99555
G1 X116.371 Y170.749 E46.01793
G1 F1153.2 X115.892 Y171.201 E46.03561
G1 F1049.2 X115.751 Y171.311 E46.04089
G1 F1002.6 X115.329 Y172.125 E46.06922
G1 F1010.5 X115.192 Y172.996 E46.09624
G1 X115.328 Y173.865 E46.1232
G1 F1013.2 X115.736 Y174.653 E46.15032
G1 X116.334 Y175.254 E46.17624
G1 X117.131 Y175.668 E46.2037
G1 X118 Y175.805 E46.23059
G1 F2700 E41.23059
G0 F6000 X118.001 Y175.547
G0 X118.744 Y175.285
G0 X119.414 Y174.943
G0 X119.947 Y174.41
G0 X120.289 Y173.74
G0 X120.408 Y172.996
G0 X120.289 Y172.252
G0 X119.947 Y171.582
G0 X119.467 Y171.102
G0 X118.01 Y170.367
G0 X117.762 Y166.715
G0 X117.521 Y166.859
G1 F2700 E46.23059
G1 F1200 X124.638 Y166.376 E46.4147
G1 X131.425 Y164.987 E46.5935
G1 X137.831 Y162.762 E46.76853
G1 X143.918 Y159.718 E46.94418
G1 X149.484 Y155.956 E47.11758
G1 X154.519 Y151.527 E47.29065
G1 X158.948 Y146.496 E47.46365
G1 X162.711 Y140.934 E47.63697
G1 X165.743 Y134.886 E47.81159
G1 X167.993 Y128.411 E47.98851
G1 X169.386 Y121.605 E48.16781
G1 X169.865 Y114.494 E48.35176
G1 X169.38 Y107.358 E48.53636
G1 X167.992 Y100.577 E48.71501
G1 X165.751 Y94.125 E48.89129
G1 X162.722 Y88.077 E49.06588
G1 X158.96 Y82.512 E49.23925
G1 X154.531 Y77.477 E49.41232
G1 X149.5 Y73.048 E49.58532
G1 X143.938 Y69.285 E49.75864
G1 X137.89 Y66.254 E49.93325
G1 X131.414 Y64.003 E50.1102
G1 X124.609 Y62.61 E50.28948
G1 X117.5 Y62.131 E50.47338
G1 X110.34 Y62.619 E50.6586
G1 X103.577 Y64.006 E50.83679
G1 X97.129 Y66.246 E51.01297
G1 X91.08 Y69.274 E51.18756
G1 X85.516 Y73.036 E51.36091
G1 X80.473 Y77.472 E51.53426
G1 X76.052 Y82.496 E51.70698
G1 X72.289 Y88.059 E51.88033
G1 X69.258 Y94.106 E52.05491
G1 X67.01 Y100.573 E52.23162
G1 X65.621 Y107.35 E52.41017
G1 X65.137 Y114.487 E52.5948
G1 X65.615 Y121.605 E52.77892
G1 X67.01 Y128.419 E52.95844
G1 X69.25 Y134.867 E53.13462
G1 X72.278 Y140.916 E53.30921
G1 X76.04 Y146.48 E53.48256
G1 X80.473 Y151.52 E53.6558
G1 X85.5 Y155.944 E53.82864
G1 X91.062 Y159.707 E54.00196
G1 X97.11 Y162.739 E54.17657
G1 X103.577 Y164.987 E54.35328
G1 X110.354 Y166.375 E54.53183
G1 X117.521 Y166.859 E54.71723
G1 F2700 E49.71723
G0 F6000 X117.536 Y166.632
G0 X110.447 Y166.017
G0 X103.68 Y164.634
G0 X97.264 Y162.404
G0 X91.259 Y159.391
G0 X85.729 Y155.655
G0 X82.469 Y152.972
G0 X82.212 Y153.262
G1 F2700 E54.71723
G1 F1200 X93.413 Y164.463 E55.12607
G0 F6000 X93.239 Y164.81
G0 X92.331 Y164.354
G0 X92.505 Y164.007
G1 F1200 X67.987 Y139.49 E56.02098
G0 F6000 X67.641 Y139.662
G0 X67.185 Y138.755
G0 X67.532 Y138.582
G1 F1200 X78.73 Y149.78 E56.42971
G1 F2700 E51.42971
G0 F6000 X79.022 Y149.524
G0 X77.404 Y147.807
G0 X74.675 Y150.207
G0 X74.893 Y150.016
G1 F2700 E56.42971
G1 F1200 X81.977 Y157.1 E56.68828
G0 F6000 X81.719 Y157.392
G0 X84.144 Y159.354
G0 X84.362 Y159.032
G1 F1200 X72.962 Y147.632 E57.10439
G0 F6000 X72.639 Y147.849
G0 X71.696 Y146.453
G0 X72.018 Y146.236
G1 F1200 X85.758 Y159.976 E57.60591
G0 F6000 X85.54 Y160.298
G0 X86.936 Y161.241
G0 X87.154 Y160.919
G1 F1200 X71.074 Y144.839 E58.19284
G0 F6000 X70.752 Y145.056
G0 X69.808 Y143.658
G0 X70.13 Y143.442
G1 F1200 X88.55 Y161.863 E58.8652
G0 F6000 X88.332 Y162.184
G0 X89.605 Y162.986
G0 X89.779 Y162.639
G1 F1200 X69.354 Y142.214 E59.61073
G0 F6000 X69.007 Y142.387
G0 X68.552 Y141.479
G0 X68.899 Y141.306
G1 F1200 X90.687 Y163.095 E60.40602
G0 F6000 X90.513 Y163.442
G0 X91.422 Y163.898
G0 X91.596 Y163.551
G1 F1200 X68.443 Y140.398 E61.25112
G1 F2700 E56.25112
G0 F6000 X68.096 Y140.571
G0 X71.423 Y138.919
G0 X71.163 Y139.046
G1 F2700 E61.25112
G1 F1200 X65.265 Y133.148 E61.4664
G0 F6000 X65.507 Y133.841
